X:1
T:Into the Drink
T:For David Gardner
C:T. S. Macdonald
M:C|
L:1/8
K:Em
gebe aege | fedc dBde | gebe aege | fe^df ge e/e/e |
gebe aebe | c'ed'e e'e e/e/e | fedc dBAG | FDAF GE E2 ||
GE E/E/E BE E/E/E | AF F/F/F A,DFD | GE E/E/E BE E/E/E | fdec dBBF |
GE E/E/E BE E/E/E | AF F/F/F A,DFD | GEGB e^deg | fdaf ge e2 |]

